source/images/glyphs/email-circle-active.svg

<svg width="19px" height="19px" viewBox="1 71 19 19" version="1.1" xmlns="http://www.w3.org/2000/svg" xmlns:xlink="http://www.w3.org/1999/xlink">
    <!-- Generator: Sketch 42 (36781) - http://www.bohemiancoding.com/sketch -->
    <desc>Created with Sketch.</desc>
    <defs></defs>
    <path d="M12.4091763,81.1948484 C11.8932654,81.4925677 11.5700563,82.0951435 11.5700563,82.3490207 C11.5700563,82.540703 11.4211967,82.7680708 11.2203381,82.7680708 L9.12100885,82.7680708 C8.92932654,82.7680708 8.80697612,82.4713711 8.80697612,82.2786692 L8.80697612,81.8851087 C8.80697612,80.8277972 9.85613094,79.9183257 10.625919,79.5686075 C11.2988463,79.2617118 11.5792326,78.9741884 11.5792326,78.4144352 C11.5792326,77.924014 10.9409713,77.4876308 10.2313389,77.4876308 C9.83879796,77.4876308 9.47990341,77.6099812 9.2872015,77.7415079 C9.07716662,77.889348 8.86713174,78.0993829 8.35224041,78.7468205 C8.28188892,78.834505 8.17789107,78.8865039 8.08103032,78.8865039 C8.00252214,78.8865039 7.93217065,78.8599946 7.86283874,78.8161524 L6.42828012,77.7231554 C6.27942045,77.6099812 6.24475449,77.4172793 6.34161524,77.2602629 C7.28575262,75.6951972 8.61427422,74.9345855 10.3975315,74.9345855 C12.2684733,74.9345855 14.3678025,76.4292997 14.3678025,78.4317682 C14.3678025,80.0926751 13.2391199,80.7309364 12.4091763,81.1948484 L12.4091763,81.1948484 Z M11.6047223,85.7758519 C11.6047223,85.9685538 11.4477059,86.1255702 11.255004,86.1255702 L9.15669439,86.1255702 C8.96399249,86.1255702 8.80697612,85.9685538 8.80697612,85.7758519 L8.80697612,83.6785618 C8.80697612,83.4858599 8.96399249,83.327824 9.15669439,83.327824 L11.255004,83.327824 C11.4477059,83.327824 11.6047223,83.4858599 11.6047223,83.6785618 L11.6047223,85.7758519 Z M1,80.4994902 C1,85.7462839 5.25371613,90 10.4994902,90 C15.7462839,90 20,85.7462839 20,80.4994902 C20,75.2537161 15.7462839,71 10.4994902,71 C5.25371613,71 1,75.2537161 1,80.4994902 Z" id="Email-Us" stroke="none" fill="#FFED00" fill-rule="evenodd"></path>
</svg>

<svg width="19" height="19" viewBox="1 71 19 19" xmlns="http://www.w3.org/2000/svg">
    <path d="M12.41 81.195c-.517.298-.84.9-.84 1.154 0 .19-.15.417-.35.417h-2.1c-.19 0-.313-.297-.313-.49v-.393c0-1.057 1.05-1.967 1.82-2.316.672-.308.952-.596.952-1.156 0-.49-.64-.926-1.35-.926-.39 0-.75.122-.944.254-.21.147-.42.357-.935 1.005a.357.357 0 0 1-.27.14.412.412 0 0 1-.22-.07l-1.43-1.093a.342.342 0 0 1-.086-.463c.944-1.566 2.272-2.326 4.056-2.326 1.87 0 3.97 1.494 3.97 3.497 0 1.66-1.13 2.3-1.96 2.764zm-.805 4.58a.35.35 0 0 1-.35.35H9.157a.35.35 0 0 1-.35-.35V83.68c0-.194.157-.352.35-.352h2.098c.193 0 .35.158.35.35v2.098zM1 80.5c0 5.246 4.254 9.5 9.5 9.5s9.5-4.254 9.5-9.5-4.254-9.5-9.5-9.5S1 75.254 1 80.5z" fill="#FFED00" fill-rule="evenodd"/>
</svg>
